X: 4183
T: The FUN OF THE FAIR
%R: reel
B: James Kerr "Merry Melodies" v.4 p.21 #183
Z: 2016 John Chambers <jc:trillian.mit.edu>
M: C|
L: 1/8
K: Am	% and C major
|:\
A2(cB) AECE | ABcd e2(ag) |\
fedf edce |[1 dcBA ^G2E2 :|[2 edcB A2B2 |]
|:\
c2(ed) cGEG | cdef gedc |\
[1 B2(dc) BGBd | fedc BGAB :|\
[2 afge fdec | dBGB cedB |]

%%sep 1 1 500
%%sep 1 1 500

